X:36
T:Newmarket
Z: id:dc-polka-29
M:2/4
L:1/8
K:D Major
fd Ad|fd Ad|fd/B/ AF|E2 E2|!
fd Ad|fd Ad|fd/B/ AF|D2 D2:|!
FD FA|de f/g/f/e/|dB AF|E2 E2|!
FD FA|de f/g/f/e/|dB AF|D2 D2:|!

